icons/1_Primary/Gusto.svg

<svg width="1024" height="1024" fill="none" xmlns="http://www.w3.org/2000/svg"><g clip-path="url(#a)"><path d="M512 1024c282.77 0 512-229.23 512-512S794.77 0 512 0 0 229.23 0 512s229.23 512 512 512Z" fill="#FF837D"/><path d="M768.04 423.54c-40.85 0-73.97 33.11-73.98 73.96 0 40.85 33.11 73.97 73.96 73.98 40.85 0 73.97-33.11 73.98-73.96v-.03c-.05-40.83-33.14-73.91-73.96-73.95Zm0 112.85c-21.48 0-38.89-17.41-38.89-38.89s17.41-38.89 38.89-38.89c21.47 0 38.88 17.4 38.89 38.87-.02 21.47-17.42 38.88-38.89 38.9v.01Zm-217.79-53.85-12.92-6.46c-5.6-2.76-9.11-4.93-10.52-6.52a7.67 7.67 0 0 1-2.13-5.23c0-2.49 1.11-4.58 3.36-6.27 2.24-1.68 5.34-2.52 9.3-2.52 7.25 0 15.3 4.39 24.16 13.18l21.83-21.83a57.047 57.047 0 0 0-46.24-23.25c-13.35 0-24.31 3.94-32.87 11.82-8.56 7.88-12.85 17.37-12.85 28.48 0 17.23 11.37 31.56 34.1 43.02l11.88 5.94c10.23 5.17 15.35 10.46 15.35 15.89 0 2.93-1.42 5.51-4.26 7.75s-6.58 3.36-11.23 3.36c-4.31 0-9.24-1.49-14.79-4.48a54.46 54.46 0 0 1-14.71-11.51l-21.5 23.45c12.22 16.01 28.58 24.02 49.08 24.02 15.41 0 27.71-4.18 36.88-12.53 9.17-8.35 13.76-18.77 13.75-31.26 0-9.38-2.54-17.56-7.62-24.54s-14.42-13.82-28.02-20.52l-.03.01Zm-219.56-56.07h-35.08l.12 12.62c-11.36-11.51-25.36-15.54-39.76-15.54-40.85 0-73.97 33.12-73.96 73.98 0 40.85 33.12 73.96 73.96 73.96 17.03 0 31.6-7.54 39.1-17.14 0 .58-.05 7.56-.07 8.31-.14 4.77-.83 12.41-5.33 20.22-10.9 18.42-34.66 24.51-53.08 13.62-.29-.17-.58-.35-.87-.53l-17.45 30.37a73.427 73.427 0 0 0 38.02 10.64c19.41 0 43.62-7.67 60.79-31.46 14.28-19.77 13.61-38.45 13.61-56.53V426.47Zm-74.73 109.92c-21.48 0-38.89-17.41-38.89-38.89s17.41-38.89 38.89-38.89 38.88 17.4 38.89 38.87c-.01 21.47-17.41 38.88-38.89 38.9v.01Zm214.59-109.92h-35.26v70.33c.07 9.96.06 27.22-7.29 34.62-3.52 3.54-7.36 6.71-15.5 6.71s-12.01-3.2-15.52-6.71c-7.35-7.4-7.33-24.65-7.26-34.62v-70.33h-35.24v70.08c-.1 14.43-.27 41.3 17.42 59.11 10.38 10.45 22.75 15.75 40.63 15.75 17.88 0 30.25-5.3 40.63-15.75 17.69-17.81 17.51-44.68 17.42-59.11l-.03-70.08Zm182.38 109.5c-4.02-.54-7.98-3.41-10.23-8.66-1.54-3.59-2.1-8.31-2.1-14.12v-56.55h41.44v-30.27H640.6v-39.32h-35.17v123.3c0 12.09.97 26.75 8.95 40.28 6.81 11.51 18.8 20.81 38.49 20.81 23.87 0 41.04-17.26 41.04-17.26l-21.1-25.95s-9.26 9.19-19.89 7.75l.01-.01Z" fill="#fff"/></g><defs><clipPath id="a"><path fill="#fff" d="M0 0h1024v1024H0z"/></clipPath></defs></svg>

<svg width="1024" height="1024" viewBox="0 0 1024 1024" fill="none" xmlns="http://www.w3.org/2000/svg">
<g clip-path="url(#clip0_2_2355)">
<path d="M512 1024C794.77 1024 1024 794.77 1024 512C1024 229.23 794.77 0 512 0C229.23 0 0 229.23 0 512C0 794.77 229.23 1024 512 1024Z" fill="#FF837D"/>
<path d="M768.04 423.54C727.19 423.54 694.07 456.65 694.06 497.5C694.06 538.35 727.17 571.47 768.02 571.48C808.87 571.48 841.99 538.37 842 497.52V497.49C841.95 456.66 808.86 423.58 768.04 423.54ZM768.04 536.39C746.56 536.39 729.15 518.98 729.15 497.5C729.15 476.02 746.56 458.61 768.04 458.61C789.51 458.61 806.92 476.01 806.93 497.48C806.91 518.95 789.51 536.36 768.04 536.38V536.39ZM550.25 482.54L537.33 476.08C531.73 473.32 528.22 471.15 526.81 469.56C525.461 468.151 524.699 466.281 524.68 464.33C524.68 461.84 525.79 459.75 528.04 458.06C530.28 456.38 533.38 455.54 537.34 455.54C544.59 455.54 552.64 459.93 561.5 468.72L583.33 446.89C578.001 439.644 571.034 433.76 562.998 429.72C554.962 425.679 546.085 423.596 537.09 423.64C523.74 423.64 512.78 427.58 504.22 435.46C495.66 443.34 491.37 452.83 491.37 463.94C491.37 481.17 502.74 495.5 525.47 506.96L537.35 512.9C547.58 518.07 552.7 523.36 552.7 528.79C552.7 531.72 551.28 534.3 548.44 536.54C545.6 538.78 541.86 539.9 537.21 539.9C532.9 539.9 527.97 538.41 522.42 535.42C516.89 532.459 511.914 528.565 507.71 523.91L486.21 547.36C498.43 563.37 514.79 571.38 535.29 571.38C550.7 571.38 563 567.2 572.17 558.85C581.34 550.5 585.93 540.08 585.92 527.59C585.92 518.21 583.38 510.03 578.3 503.05C573.22 496.07 563.88 489.23 550.28 482.53L550.25 482.54ZM330.69 426.47H295.61L295.73 439.09C284.37 427.58 270.37 423.55 255.97 423.55C215.12 423.55 182 456.67 182.01 497.53C182.01 538.38 215.13 571.49 255.97 571.49C273 571.49 287.57 563.95 295.07 554.35C295.07 554.93 295.02 561.91 295 562.66C294.86 567.43 294.17 575.07 289.67 582.88C278.77 601.3 255.01 607.39 236.59 596.5C236.3 596.33 236.01 596.15 235.72 595.97L218.27 626.34C229.734 633.291 242.883 636.971 256.29 636.98C275.7 636.98 299.91 629.31 317.08 605.52C331.36 585.75 330.69 567.07 330.69 548.99V426.48V426.47ZM255.96 536.39C234.48 536.39 217.07 518.98 217.07 497.5C217.07 476.02 234.48 458.61 255.96 458.61C277.44 458.61 294.84 476.01 294.85 497.48C294.84 518.95 277.44 536.36 255.96 536.38V536.39ZM470.55 426.47H435.29V496.8C435.36 506.76 435.35 524.02 428 531.42C424.48 534.96 420.64 538.13 412.5 538.13C404.36 538.13 400.49 534.93 396.98 531.42C389.63 524.02 389.65 506.77 389.72 496.8V426.47H354.48V496.55C354.38 510.98 354.21 537.85 371.9 555.66C382.28 566.11 394.65 571.41 412.53 571.41C430.41 571.41 442.78 566.11 453.16 555.66C470.85 537.85 470.67 510.98 470.58 496.55L470.55 426.47ZM652.93 535.97C648.91 535.43 644.95 532.56 642.7 527.31C641.16 523.72 640.6 519 640.6 513.19V456.64H682.04V426.37H640.6V387.05H605.43V510.35C605.43 522.44 606.4 537.1 614.38 550.63C621.19 562.14 633.18 571.44 652.87 571.44C676.74 571.44 693.91 554.18 693.91 554.18L672.81 528.23C672.81 528.23 663.55 537.42 652.92 535.98L652.93 535.97Z" fill="white"/>
</g>
<defs>
<clipPath id="clip0_2_2355">
<rect width="1024" height="1024" fill="white"/>
</clipPath>
</defs>
</svg>
